assets/flags-color/Gg.svg

<svg xmlns="http://www.w3.org/2000/svg" viewBox="0 0 512 512"><path fill="#f5f5f5" d="M0 0h512v512H0z"/><path fill="#ff4b55" d="M512 202.105H309.895V0H202.106v202.105H0v107.79h202.106V512h107.789V309.895H512z"/><g fill="#ffe15a"><path d="M417.684 296.421v-80.842l-20.21 20.21H114.527l-20.211-20.21v80.842l20.211-20.21h282.947z"/><path d="M215.579 417.684h80.842l-20.21-20.21V114.526l20.21-20.21h-80.842l20.211 20.21v282.948z"/></g></svg>

<svg xmlns="http://www.w3.org/2000/svg" x="0" y="0" enable-background="new 0 0 512 512" version="1.1" viewBox="0 0 512 512" xml:space="preserve"><path fill="#F5F5F5" d="M0 0H512V512H0z"/><path fill="#FF4B55" d="M512 202.105 309.895 202.105 309.895 0 202.106 0 202.106 202.105 0 202.105 0 309.895 202.106 309.895 202.106 512 309.895 512 309.895 309.895 512 309.895z"/><g fill="#FFE15A"><path d="M417.684 296.421 417.684 215.579 397.474 235.789 114.527 235.789 94.316 215.579 94.316 296.421 114.527 276.211 397.474 276.211z"/><path d="M215.579 417.684 296.421 417.684 276.211 397.474 276.211 114.526 296.421 94.316 215.579 94.316 235.79 114.526 235.79 397.474z"/></g></svg>
